currency-btc.svg

<svg fill="currentColor" viewBox="0 0 24 24"><path d="M17.06 11.57A3.9 3.9 0 0 0 18 9c0-1.86-1.27-3.43-3-3.87V3h-2v2h-2V3H9v2H6v2h2v10H6v2h3v2h2v-2h2v2h2v-2c2.21 0 4-1.79 4-4 0-1.45-.78-2.73-1.94-3.43M10 7h4c1.1 0 2 .9 2 2s-.9 2-2 2h-4zm5 10h-5v-4h5c1.1 0 2 .9 2 2s-.9 2-2 2"/></svg>

<svg  viewBox="0 0 24 24" fill="currentColor"><path  d="M17.06 11.57C17.65 10.88 18 10 18 9C18 7.14 16.73 5.57 15 5.13V3H13V5H11V3H9V5H6V7H8V17H6V19H9V21H11V19H13V21H15V19C17.21 19 19 17.21 19 15C19 13.55 18.22 12.27 17.06 11.57M10 7H14C15.1 7 16 7.9 16 9S15.1 11 14 11H10V7M15 17H10V13H15C16.1 13 17 13.9 17 15S16.1 17 15 17Z"/></svg>
